public/icons/maps.svg

<svg width="79" height="79" viewBox="0 0 79 79" fill="none" xmlns="http://www.w3.org/2000/svg">
<path d="M39.5 1.58008C24.6797 1.58008 12.64 13.6197 12.64 28.4401C12.64 34.6571 14.7548 40.3902 18.2935 44.9375L18.2965 44.9437C20.3533 47.7163 24.5537 52.8441 28.4153 58.5033C32.2856 64.1751 35.7231 70.4306 36.2567 74.6643C36.2577 74.6715 36.2587 74.6787 36.2598 74.6859C36.4786 76.2498 37.8349 77.4201 39.4043 77.4201C40.9743 77.4201 42.3649 76.2402 42.5551 74.6551C43.0772 70.5383 46.3647 64.5318 50.1311 59.0186C53.8998 53.5019 58.0704 48.4144 60.2776 45.4714C60.2616 45.4928 60.3385 45.3878 60.3764 45.3418C64.1112 40.7288 66.36 34.8378 66.36 28.4401C66.36 13.6197 54.3204 1.58008 39.5 1.58008ZM39.5 4.74008C40.4625 4.74008 41.3762 4.91313 42.3082 5.02398L31.3747 18.383L22.9008 11.5322C27.1737 7.33741 33.0221 4.74008 39.5 4.74008ZM45.8354 5.6998C52.2645 7.48425 57.5372 11.8617 60.5183 17.6856L52.0567 28.0296C51.8265 21.2634 46.321 15.8001 39.5 15.8001C38.6806 15.8001 37.9651 16.1193 37.1886 16.2691L45.8354 5.6998ZM20.8579 13.9423L29.3751 20.8271L17.056 35.8834C16.2798 33.539 15.8 31.0534 15.8 28.4401C15.8 22.9451 17.7334 17.9568 20.8579 13.9423ZM39.5 18.9601C44.7627 18.9601 48.98 23.1774 48.98 28.4401C48.98 33.7028 44.7627 37.9201 39.5 37.9201C34.2373 37.9201 30.02 33.7028 30.02 28.4401C30.02 23.1774 34.2373 18.9601 39.5 18.9601ZM61.8947 20.9906C62.6759 23.3451 63.2 25.8193 63.2 28.4401C63.2 34.1062 61.2149 39.2952 57.9107 43.3698C57.88 43.4086 57.8512 43.4487 57.8243 43.4902C57.9275 43.3353 57.8735 43.4123 57.7502 43.5766C55.6441 46.3848 51.3909 51.5692 47.5204 57.235C43.6498 62.9007 40.0827 68.9853 39.4167 74.2693V74.2786C39.4173 74.2734 39.446 74.2601 39.4043 74.2601C39.3938 74.2601 39.3913 74.2639 39.3889 74.2477C38.7432 69.1814 35.3915 63.3608 31.7235 57.8707L61.8947 20.9906ZM26.9341 28.8042C27.139 35.5931 32.6626 41.0801 39.5 41.0801C40.2976 41.0801 40.9926 40.7655 41.7497 40.6234L29.8595 55.1581C26.305 50.1399 22.524 45.3367 20.8147 43.0304C20.8066 43.02 20.7983 43.0097 20.79 42.9995C19.857 41.8012 19.2943 40.3539 18.602 38.9878L26.9341 28.8042Z" fill="white"/>
</svg>

<svg xmlns="http://www.w3.org/2000/svg" width="79" height="79" fill="none"><path fill="#fff" d="M39.5 1.58c-14.82 0-26.86 12.04-26.86 26.86 0 6.217 2.115 11.95 5.654 16.498l.003.006c2.056 2.772 6.257 7.9 10.118 13.56 3.87 5.671 7.308 11.927 7.842 16.16l.003.022a3.19 3.19 0 0 0 3.144 2.734c1.57 0 2.96-1.18 3.151-2.765.522-4.117 3.81-10.123 7.576-15.636 3.769-5.517 7.94-10.605 10.147-13.548-.016.022.06-.083.098-.13a26.8 26.8 0 0 0 5.984-16.9c0-14.821-12.04-26.86-26.86-26.86m0 3.16c.962 0 1.876.173 2.808.284L31.375 18.383l-8.474-6.85C27.174 7.336 33.022 4.74 39.5 4.74m6.335.96a23.55 23.55 0 0 1 14.683 11.986L52.057 28.03C51.827 21.263 46.32 15.8 39.5 15.8c-.82 0-1.535.32-2.311.47zm-24.977 8.242 8.517 6.885-12.319 15.056c-.776-2.344-1.256-4.83-1.256-7.443 0-5.495 1.933-10.483 5.058-14.498M39.5 18.96a9.446 9.446 0 0 1 9.48 9.48 9.446 9.446 0 0 1-9.48 9.48 9.446 9.446 0 0 1-9.48-9.48 9.446 9.446 0 0 1 9.48-9.48m22.395 2.03c.78 2.355 1.305 4.83 1.305 7.45a23.6 23.6 0 0 1-5.29 14.93q-.045.059-.086.12c.104-.155.05-.078-.074.087-2.106 2.808-6.36 7.992-10.23 13.658s-7.437 11.75-8.103 17.034v.01c0-.006.029-.019-.013-.019-.01 0-.013.004-.015-.012-.646-5.067-3.998-10.887-7.666-16.377zm-34.96 7.814c.204 6.79 5.728 12.276 12.565 12.276.798 0 1.493-.314 2.25-.457L29.86 55.158c-3.555-5.018-7.336-9.821-9.045-12.128L20.79 43c-.933-1.199-1.496-2.646-2.188-4.012z"/></svg>
